source/images/zahnerhalt.svg

<?xml version="1.0" encoding="UTF-8"?>
<svg width="47px" height="47px" viewBox="0 0 47 47" version="1.1" xmlns="http://www.w3.org/2000/svg" xmlns:xlink="http://www.w3.org/1999/xlink">
    <!-- Generator: Sketch 40.1 (33804) - http://www.bohemiancoding.com/sketch -->
    <title>Combined Shape</title>
    <desc>Created with Sketch.</desc>
    <defs></defs>
    <g id="Page-1" stroke="none" stroke-width="1" fill="none" fill-rule="evenodd">
        <g id="zahnerhalt" transform="translate(1.000000, 1.000000)" stroke="#616161">
            <g id="Ebene_1">
                <g id="Group">
                    <path d="M22.5,45 C34.9264069,45 45,34.9264069 45,22.5 C45,10.0735931 34.9264069,0 22.5,0 C10.0735931,0 -1.42108547e-14,10.0735931 -1.42108547e-14,22.5 C-1.42108547e-14,34.9264069 10.0735931,45 22.5,45 Z M24.186,29.598 C25.456,29.598 27.545,31.578 28.708,34.779 C29.693,37.492 29.455,41.132 29.214,43.118 C30.041,42.216 31.153,40.76 31.612,39.075 C32.073,37.384 31.895,35.138 31.723,32.969 C31.599,31.397 31.481,29.911 31.597,28.638 C31.674,27.776 32.069,26.573 32.524,25.179 C33.441,22.377 34.628,18.748 33.597,16.478 L31.341,17.665 L31.84,14.756 C30.92,14.261 30.038,14.02 29.159,14.02 C28.019,14.02 27.051,14.43 26.196,14.792 C25.495,15.09 24.832,15.371 24.184,15.371 C23.536,15.371 22.872,15.09 22.17,14.792 C21.316,14.43 20.348,14.02 19.207,14.02 C18.164,14.02 17.115,14.361 16.002,15.063 C13.127,16.878 14.696,21.677 15.843,25.181 C16.299,26.575 16.692,27.777 16.77,28.639 C16.886,29.913 16.769,31.4 16.644,32.972 C16.473,35.142 16.295,37.385 16.755,39.076 C17.214,40.761 18.327,42.217 19.153,43.119 C18.913,41.133 18.674,37.493 19.659,34.78 C20.824,31.578 22.915,29.598 24.186,29.598 Z M34.5,15.75 L31.8549664,17.1405765 L32.3601228,14.1952882 L30.2202457,12.1094235 L33.1774832,11.6797118 L34.5,9 L35.8225168,11.6797118 L38.7797543,12.1094235 L36.6398772,14.1952882 L37.1450336,17.1405765 L34.5,15.75 Z" id="Combined-Shape"></path>
                </g>
            </g>
        </g>
    </g>
</svg>

<?xml version="1.0" encoding="utf-8"?>
<!-- Generator: Adobe Illustrator 15.1.0, SVG Export Plug-In . SVG Version: 6.00 Build 0)  -->
<!DOCTYPE svg PUBLIC "-//W3C//DTD SVG 1.1//EN" "http://www.w3.org/Graphics/SVG/1.1/DTD/svg11.dtd">
<svg version="1.1" id="Ebene_1" xmlns="http://www.w3.org/2000/svg" xmlns:xlink="http://www.w3.org/1999/xlink" x="0px" y="0px"
	 width="45px" height="45px" viewBox="0 0 45 45" enable-background="new 0 0 45 45" xml:space="preserve">
<g>
	<path fill-rule="evenodd" clip-rule="evenodd" fill="#97BFDA" d="M24.186,29.598c1.27,0,3.359,1.98,4.522,5.181
		c0.985,2.713,0.747,6.353,0.506,8.339c0.827-0.902,1.939-2.358,2.398-4.043c0.461-1.691,0.283-3.937,0.111-6.106
		c-0.124-1.572-0.242-3.058-0.126-4.331c0.077-0.862,0.472-2.065,0.927-3.459c0.917-2.802,2.104-6.431,1.073-8.701l-2.256,1.187
		l0.499-2.909c-0.92-0.495-1.802-0.736-2.681-0.736c-1.14,0-2.108,0.41-2.963,0.772c-0.701,0.298-1.364,0.579-2.012,0.579
		c-0.648,0-1.312-0.281-2.014-0.579c-0.854-0.362-1.822-0.772-2.963-0.772c-1.043,0-2.092,0.341-3.205,1.043
		c-2.875,1.815-1.306,6.614-0.159,10.118c0.456,1.394,0.849,2.596,0.927,3.458c0.116,1.274-0.001,2.761-0.126,4.333
		c-0.171,2.17-0.349,4.413,0.111,6.104c0.459,1.685,1.572,3.141,2.398,4.043c-0.24-1.986-0.479-5.626,0.506-8.339
		C20.824,31.578,22.915,29.598,24.186,29.598z"/>
	<path fill-rule="evenodd" clip-rule="evenodd" fill="#97BFDA" d="M27.804,35.106c-1.084-2.985-2.932-4.547-3.618-4.547
		c-0.688,0-2.536,1.562-3.619,4.547c-1.305,3.592-0.264,9.208-0.253,9.265c0.037,0.198-0.052,0.397-0.224,0.501
		C20.882,44.956,21.686,45,22.5,45c1.922,0,3.787-0.241,5.568-0.694C28.181,43.663,29.03,38.483,27.804,35.106z"/>
	<path fill-rule="evenodd" clip-rule="evenodd" fill="#97BFDA" d="M22.5,0C10.074,0,0,10.073,0,22.5
		c0,11.408,8.491,20.834,19.499,22.301c-0.347-0.294-2.862-2.511-3.67-5.474c-0.505-1.854-0.32-4.182-0.142-6.433
		c0.121-1.532,0.235-2.979,0.127-4.171c-0.068-0.753-0.446-1.908-0.885-3.246c-1.244-3.805-2.948-9.016,0.562-11.23
		c1.271-0.802,2.487-1.191,3.718-1.191c1.336,0,2.446,0.471,3.339,0.85c0.636,0.27,1.185,0.502,1.638,0.502
		c0.451,0,1.001-0.232,1.637-0.502c0.892-0.379,2.003-0.85,3.338-0.85c0.57,0,1.136,0.083,1.706,0.253l-1.375-1.341l3.348-0.486
		l1.497-3.033l1.497,3.033l3.348,0.486l-2.423,2.361l0.572,3.334l-2.788-1.466c1.087,2.587-0.144,6.351-1.103,9.279
		c-0.438,1.338-0.815,2.494-0.885,3.247c-0.107,1.192,0.007,2.638,0.128,4.168c0.179,2.253,0.362,4.582-0.142,6.436
		c-0.507,1.86-1.688,3.426-2.581,4.407C38.72,40.657,45,32.312,45,22.5C45,10.073,34.927,0,22.5,0z"/>
</g>
</svg>
